X:69
T:Dinky's
Z: id:dc-reel-62
M:C
L:1/8
K:A Mixolydian
fed|ceBe ABcd|egfd ecAa|gBB2 gBaB|gBB2 gfed|!
ceBe ABcd|egfd ecAa|gagf efed|ceBe A:|!
ef^g|aAA2 aAbA|aAA2 agef|gBB2 gBaB|gBB2 gfe^g|!
[1 aAA2 aAbA|aAA2 agef|gagf efed|ceBe A:|!
[2 aAA2 gAA2|fAA2 eAA2|gagf efed|ceBe A|]!

